assets/images/icons/fb.svg

<svg viewBox="0 0 64 66" xmlns="http://www.w3.org/2000/svg">
    <g stroke-width="1" fill="none"  fill-rule="evenodd">
        <path class="stroke" stroke="#FFFFFF" d="M63,32.9487968 C63,50.0411662 49.1203568,63.8975937 32.0000819,63.8975937 C14.8788239,63.8975937 1,50.0411662 1,32.9487968 C1,15.8559367 14.8788239,2 32.0000819,2 C49.1203568,2 63,15.8559367 63,32.9487968"></path>
        <path class="fill" fill="#FFFFFF" d="M27.7673218,33.0222477 C27.7711833,32.5340719 27.6353865,32.3812716 27.1551102,32.4012305 C26.2674436,32.4378764 25.3773635,32.3974678 24.4885707,32.4182447 C24.1286449,32.4275698 23.9960661,32.3261391 24.0000885,31.938576 C24.0179481,30.131475 24.0161782,28.3232288 24.0018584,26.515637 C23.9986405,26.1679918 24.1016143,26.0536369 24.4473811,26.0614896 C25.3561252,26.0827573 26.2668,26.0356412 27.1739351,26.081285 C27.6997452,26.1074606 27.8085113,25.9175236 27.7975703,25.4214951 C27.7658737,24.0461287 27.7658737,22.6686354 27.7954787,21.2931053 C27.8316804,19.6131198 28.2751115,18.0445444 29.259316,16.6786666 C30.5046558,14.9486201 32.275323,14.1577885 34.3180663,14.0651922 C36.4159972,13.970469 38.5192377,14.0229839 40.6197429,14.0000802 C40.9125748,13.9966447 40.9999416,14.1031468 40.9986545,14.3925513 C40.9893225,16.2204292 40.9873917,18.0489615 40.9999416,19.8768394 C41.0028378,20.2020718 40.8984159,20.3015392 40.5845066,20.2964677 C39.5742368,20.2804351 38.5638061,20.2882878 37.5541798,20.291069 C36.2095669,20.2953225 35.404762,20.9986294 35.3204522,22.3519101 C35.2528756,23.4368906 35.3022709,24.5284149 35.2774928,25.6165037 C35.2683217,26.0042304 35.4948641,25.977564 35.74715,25.9772368 C37.2822646,25.9749464 38.8180227,25.9927786 40.3531373,25.9661121 C40.8038087,25.9580958 40.9524771,26.0636164 40.9009902,26.5459026 C40.7077534,28.3621651 40.5417081,30.1818631 40.3886954,32.0025427 C40.3537808,32.4133367 40.1693933,32.4917001 39.8064106,32.4854834 C38.5953418,32.466506 37.3829858,32.4723955 36.1707908,32.4802482 C35.3003401,32.4854834 35.3848109,32.3506788 35.3848109,33.2532477 C35.3807884,38.9227285 35.3732263,44.5923729 35.3971999,50.2616901 C35.3996133,50.860458 35.249175,51.0090048 34.6665684,50.9985345 C32.5861752,50.9595982 30.5046558,50.9576351 28.4242626,50.9995161 C27.8379554,51.0112951 27.7414174,50.8090883 27.7460834,50.2773955 C27.7682871,47.4221236 27.7570244,44.5670153 27.7570244,41.7115797 C27.7570244,38.8149176 27.7460834,35.918419 27.7673218,33.0222477 Z"></path>
    </g>
</svg>

<svg viewBox="0 0 64 66" xmlns="http://www.w3.org/2000/svg"><g fill="none" fill-rule="evenodd"><path class="stroke" stroke="#FFF" d="M63 32.949c0 17.092-13.88 30.949-31 30.949-17.121 0-31-13.857-31-30.95C1 15.857 14.879 2 32 2c17.12 0 31 13.856 31 30.949"/><path class="fill" fill="#FFF" d="M27.767 33.022c.004-.488-.132-.64-.612-.62-.888.036-1.778-.005-2.666.016-.36.01-.493-.092-.489-.48.018-1.807.016-3.615.002-5.422-.003-.348.1-.462.445-.455.91.022 1.82-.025 2.727.02.526.026.635-.163.624-.66a92.688 92.688 0 0 1-.003-4.128c.037-1.68.48-3.248 1.464-4.614 1.246-1.73 3.016-2.521 5.06-2.614 2.097-.095 4.2-.042 6.3-.065.294-.003.38.103.38.393-.01 1.827-.012 3.656 0 5.484.004.325-.1.425-.414.42-1.01-.017-2.021-.009-3.03-.006-1.345.004-2.15.708-2.235 2.06-.067 1.086-.018 2.177-.043 3.266-.009.387.218.36.47.36 1.535-.002 3.071.016 4.606-.01.45-.009.6.097.548.579-.193 1.816-.36 3.636-.512 5.457-.035.41-.22.489-.583.482a164.21 164.21 0 0 0-3.635-.005c-.87.005-.786-.13-.786.773-.004 5.67-.012 11.34.012 17.009.003.598-.148.747-.73.737-2.08-.04-4.162-.041-6.243 0-.586.012-.683-.19-.678-.722.022-2.855.011-5.71.011-8.565 0-2.897-.01-5.794.01-8.69z"/></g></svg>
